src/icon.svg

<?xml version="1.0" encoding="UTF-8" standalone="no"?>
<svg
   width="256"
   height="256"
   viewBox="0 0 256 256"
   version="1.1"
   id="svg2"
   sodipodi:docname="icon.svg"
   inkscape:version="1.4 (86a8ad7, 2024-10-11)"
   xmlns:inkscape="http://www.inkscape.org/namespaces/inkscape"
   xmlns:sodipodi="http://sodipodi.sourceforge.net/DTD/sodipodi-0.dtd"
   xmlns="http://www.w3.org/2000/svg"
   xmlns:svg="http://www.w3.org/2000/svg">
  <sodipodi:namedview
     id="namedview2"
     pagecolor="#ffffff"
     bordercolor="#000000"
     borderopacity="0.25"
     inkscape:showpageshadow="2"
     inkscape:pageopacity="0.0"
     inkscape:pagecheckerboard="0"
     inkscape:deskcolor="#d1d1d1"
     inkscape:zoom="6.9296875"
     inkscape:cx="128"
     inkscape:cy="128"
     inkscape:window-width="3840"
     inkscape:window-height="2036"
     inkscape:window-x="-12"
     inkscape:window-y="-12"
     inkscape:window-maximized="1"
     inkscape:current-layer="svg2" />
  <!-- Green gradient background -->
  <defs
     id="defs2">
    <linearGradient
       id="bg"
       x1="0%"
       y1="0%"
       x2="100%"
       y2="100%">
      <stop
         offset="0%"
         style="stop-color:#00E676"
         id="stop1" />
      <stop
         offset="100%"
         style="stop-color:#004D40"
         id="stop2" />
    </linearGradient>
  </defs>
  <!-- Background rectangle -->
  <rect
     width="256"
     height="256"
     fill="url(#bg)"
     id="rect2" />
  <!-- Pin icon -->
  <g
     transform="matrix(4,0,0,4,80.188309,80.130355)"
     fill="#ffffff"
     id="g2">
    <path
       d="M 17.1218,1.87023 C 15.7573,0.505682 13.4779,0.76575 12.4558,2.40261 L 9.61062,6.95916 C 9.61033,6.95965 9.60913,6.96167 9.6038,6.96549 9.59728,6.97016 9.58336,6.97822 9.56001,6.9848 9.50899,6.99916 9.44234,6.99805 9.38281,6.97599 8.41173,6.61599 6.74483,6.22052 5.01389,6.87251 4.08132,7.22378 3.61596,8.03222 3.56525,8.85243 3.51687,9.63502 3.83293,10.4395 4.41425,11.0208 l 3.5355,3.5355 -6.68002,6.68 c -0.390524,0.3906 -0.390524,1.0237 0,1.4143 0.39052,0.3905 1.02369,0.3905 1.41421,0 l 6.68003,-6.6801 3.53553,3.5356 c 0.5813,0.5813 1.3858,0.8974 2.1684,0.849 0.8202,-0.0507 1.6287,-0.5161 1.9799,-1.4486 0.652,-1.731 0.2565,-3.3979 -0.1034,-4.369 -0.0221,-0.0595 -0.0232,-0.1261 -0.0089,-0.1772 0.0066,-0.0233 0.0147,-0.0372 0.0194,-0.0438 0.0038,-0.0053 0.0057,-0.0065 0.0062,-0.0067 l 4.5566,-2.8453 c 1.6369,-1.0221 1.897,-3.30143 0.5324,-4.66597 z M 14.1523,3.46191 C 14.493,2.91629 15.2528,2.8296 15.7076,3.28445 l 4.9283,4.92829 c 0.4548,0.45485 0.3682,1.21463 -0.1775,1.55532 l -4.5565,2.84524 c -0.9447,0.5899 -1.155,1.7504 -0.8328,2.6194 0.2858,0.771 0.5138,1.889 0.1071,2.9688 -0.0278,0.0737 -0.0587,0.1003 -0.0777,0.1134 -0.0242,0.0167 -0.0719,0.0389 -0.154,0.044 -0.1775,0.011 -0.431,-0.0673 -0.6308,-0.267 L 5.82846,9.6066 C 5.62872,9.40686 5.55046,9.15333 5.56144,8.97583 5.56651,8.8937 5.58877,8.84605 5.60548,8.82181 5.61855,8.80285 5.64516,8.7719 5.71886,8.74414 6.79869,8.33741 7.91661,8.56545 8.68762,8.85128 9.55668,9.17345 10.7171,8.96318 11.3071,8.01845 Z"
       id="path2" />
  </g>
</svg>

<svg width="256" height="256" viewBox="0 0 256 256" xmlns="http://www.w3.org/2000/svg">
  <!-- Green gradient background -->
  <defs>
    <linearGradient id="bg" x1="0%" y1="0%" x2="100%" y2="100%">
      <stop offset="0%" style="stop-color:#00E676"/>
      <stop offset="100%" style="stop-color:#004D40"/>
    </linearGradient>
  </defs>
  
  <!-- Background rectangle -->
  <rect width="256" height="256" fill="url(#bg)"/>
  
  <!-- Pin icon -->
  <g transform="translate(72,72) scale(4)" fill="#FFFFFF">
    <path d="M17.1218 1.87023C15.7573 0.505682 13.4779 0.76575 12.4558 2.40261L9.61062 6.95916C9.61033 6.95965 9.60913 6.96167 9.6038 6.96549C9.59728 6.97016 9.58336 6.97822 9.56001 6.9848C9.50899 6.99916 9.44234 6.99805 9.38281 6.97599C8.41173 6.61599 6.74483 6.22052 5.01389 6.87251C4.08132 7.22378 3.61596 8.03222 3.56525 8.85243C3.51687 9.63502 3.83293 10.4395 4.41425 11.0208L7.94975 14.5563L1.26973 21.2363C0.879206 21.6269 0.879206 22.26 1.26973 22.6506C1.66025 23.0411 2.29342 23.0411 2.68394 22.6506L9.36397 15.9705L12.8995 19.5061C13.4808 20.0874 14.2853 20.4035 15.0679 20.3551C15.8881 20.3044 16.6966 19.839 17.0478 18.9065C17.6998 17.1755 17.3043 15.5086 16.9444 14.5375C16.9223 14.478 16.9212 14.4114 16.9355 14.3603C16.9421 14.337 16.9502 14.3231 16.9549 14.3165C16.9587 14.3112 16.9606 14.31 16.9611 14.3098L21.5177 11.4645C23.1546 10.4424 23.4147 8.16307 22.0501 6.79853L17.1218 1.87023ZM14.1523 3.46191C14.493 2.91629 15.2528 2.8296 15.7076 3.28445L20.6359 8.21274C21.0907 8.66759 21.0041 9.42737 20.4584 9.76806L15.9019 12.6133C14.9572 13.2032 14.7469 14.3637 15.0691 15.2327C15.3549 16.0037 15.5829 17.1217 15.1762 18.2015C15.1484 18.2752 15.1175 18.3018 15.0985 18.3149C15.0743 18.3316 15.0266 18.3538 14.9445 18.3589C14.767 18.3699 14.5135 18.2916 14.3137 18.0919L5.82846 9.6066C5.62872 9.40686 5.55046 9.15333 5.56144 8.97583C5.56651 8.8937 5.58877 8.84605 5.60548 8.82181C5.61855 8.80285 5.64516 8.7719 5.71886 8.74414C6.79869 8.33741 7.91661 8.56545 8.68762 8.85128C9.55668 9.17345 10.7171 8.96318 11.3071 8.01845L14.1523 3.46191Z"/>
  </g>
</svg>
